X:1
T:Jesus sprach zu dem Blinden
T:Melchior Vulpius (1570-1615)
T:Jesus sprach zu dem Blinden
T:Quinquagesima
T:© 2015 by Paul R Marchesano. May be freely copied for non profit use.
T:© 2015 by Paul R Marchesano. May be freely copied for non profit use.
T:© 2015 by Paul R Marchesano. May be freely copied for non profit use.
T:© 2015 by Paul R Marchesano. May be freely copied for non profit use.
T:© 2015 by Paul R Marchesano. May be freely copied for non profit use.
T:© 2015 by Paul R Marchesano. May be freely copied for non profit use.
T:© 2015 by Paul R Marchesano. May be freely copied for non profit use.
T:© 2015 by Paul R Marchesano. May be freely copied for non profit use.
T:© 2015 by Paul R Marchesano. May be freely copied for non profit use.
T:© 2015 by Paul R Marchesano. May be freely copied for non profit use.
T:© 2015 by Paul R Marchesano. May be freely copied for non profit use.
T:© 2015 by Paul R Marchesano. May be freely copied for non profit use.
T:© 2015 by Paul R Marchesano. May be freely copied for non profit use.
T:© 2015 by Paul R Marchesano. May be freely copied for non profit use.
C:Melchior Vulpius
C:(1570-1615)
Z:© 2015 by Paul R Marchesano. May be freely copied for non profit use.
%%score [ 1 2 3 4 ]
L:1/8
Q:1/4=100
M:4/4
K:C
V:1 treble nm="Soprano" snm="S"
V:2 treble nm="Alto" snm="A"
V:3 treble-8 nm="Tenor" snm="T"
V:4 bass nm="Bass" snm="B"
V:1
 z4 ^G4- | G2 A2 ^G4 | z2 c4 B2 | A8 | !fermata!^G4 E4 | F4 E4 | z2 E2 F4 | E2 E2 A2 A2 | %8
w: Je-|* sus sprach|zu dem|Blin-|den: Was|willst du,|was willst|du, das ich dir|
 A3 B cB c2- | cB A3 ^G/^F/ GG | A2 E2 A2 A2 | A3 B cB c2- | cB A3 ^G/^F/ GG | A4 e3 d | %14
w: tun _ _ _ _|_ _ _ _ _ _ _|soll? das ich dir|tun _ _ _ _|_ _ _ _ _ _ _|soll? Er _|
 cBAG FEDE | F2 E2 E2 z e | dcBA B2 z2 | z2 z A GFED | E2 z E GAGF | EAGF ED E2 | z AGF EDE z | %21
w: _ _ _ _ _ _ _ _|* sprach: Herr, dass|ich se- hen mö- ge!|dass ich se- hen mö-|ge! dass ich se- hen mö-|ge! dass ich se- hen mö- ge!|dass ich se- hen mö- ge!|
 z AGF EDEe | dcBA ^G2 z A- | A G2 F2 E2 D | E8 || E8 | F3 E D2 E2 | F2 A2 ^G4 | z2 B2 c2 BG | %29
w: dass ich se- hen mö- ge! dass|ich se- hen mö- ge! dass|_ ich se- hen mö-|ge!|Und|Je- * * sus|sprach zu ihm:|sei se- hend dein|
 A>A GE F2 EG | A2 GB c2 BG | A>A GE F2 EG | A2 ^GB c2 BG | A>A GE F2 EG | A>A GE F2 E2 | %35
w: Glaub' hat dir ge- hol- fen, sei|se- hend sei se- hend dein|Glaub' hat dir ge- hol- fen, sei|se- hend sei se- hend dein|Glaub' hat dir ge- hol- fen, dein|Glaub' hat dir ge- hol- fen,|
 z E ^F>F G A2 ^G | A c2 B B B2 A | A4 G2 G2 | G4 A2 z c | ABcA FGA^G | A2 z A AG/F/ EG | %41
w: dein Glaub' hat dir ge- hol-|fen. Und als- bald und als-|bald ward er|se- hend und|fol- ge- te und fol- ge- te ihm|nach und fol- * * * ge-|
 GG G2 z GE^F | GGGA G2 G2 | GAFG A3 ^G |[M:6/8] A2 A B/B/BA | B/B/BA B>Bc |[M:4/4] B4 z BBB | %47
w: te ihm nach und fol- ge-|te und fol- ge- te ihm|nach und fol- ge- te ihm|nach und prei- se- te und|prei- se- te und prei- se- te|Gott. Und al- les|
 c3 B B2 A2 | A2 A e>dc/B/ c/B/A/G/ | AAE e>dc/B/ c/B/A/G/ | AA ^G2 A4 | z BBB c3 B | %52
w: Volk, das sol- ches|sa- he, lo- * * * * * * *|* be- te lo- * * * * * * *|* be- te Gott.|Und al- les Volk, das|
 B2 A2 A2 Ae- | e/d/c/B/ c/B/A/G/ AAEe- | e/d/c/B/ c/B/A/G/ AA ^G2 | A4 z A>GF/E/ | %56
w: sol- ches sa- he, lo-|* * * * * * * * * be- te lo-|* * * * * * * * * be- te|Gott, lo- * * *|
 F/E/D/C/ D/E/ F2 F F2 | E8 |] %58
w: * * * * * * * be- te|Gott.|
V:2
 E6 E2 | E4 E3 D | CD E4 E2 | FE E3 D/C/ D2 | !fermata!E4 ^C4 | D4 ^C4 | z2 ^C2 D4 | ^C4 z2 E2 | %8
w: Je- sus|sprach zu _|_ _ _ dem|Blin- * * * * *|den: Was|willst du,|was willst|du, das|
 FGAF GFED | C2 D2 E4- | E4 A,2 E2 | FGAF GFED | C2 D2 E3 D | CB,A,B, CDEE | E2 A3 G FE | %15
w: ich _ _ _ _ _ _ _|_ dir tun|_ soll? das|ich _ _ _ _ _ _ _|_ dir tun _|_ _ _ _ _ _ _ _|soll? Er _ _ _|
 D2 C2 B,2 z E | GAGF E2 z2 | z2 z E EDB,A, | ^G,2 z2 z4 | z E2 D/C/ B,A,^G,A, | B,A, z2 z AGF | %21
w: _ sprach: Herr, dass|ich se- hen mö- ge!|dass ich se- hen mö-|ge!|dass _ _ _ ich se- hen|mö- ge! dass ich se-|
 EDE z z AGG | GE>DC/D/ E2 E2 | E2 D2 CB, A,2 | B,8 || ^C8 | D3 E F2 E2 | D2 C2 E2 E2 | %28
w: hen mö- ge! dass ich se-|hen mö- * * * ge! dass|ich se- hen _ mö-|ge!|Und|Je- * * sus|sprach zu ihm: sei|
 E2 DG E>F GG | C>D E^C D2 EE- | EDEG E>F GG | C>D E2 D2 ^CE | E2 E2 E2 EE | C>D E^C D2 GE | %34
w: se- hend dein Glaub' _ _ hat|dir _ _ ge- hol- fen, sei|_ se- hend dein Glaub' hat dir ge-|hol- * fen, sei se- hend|se- hend dein Glaub' hat|dir _ _ ge- hol- fen, dein|
 C>D EE DD B,2 | ^CC D>D EE E2 | E A2 G G G2 F | F F2 F E2 D2 | E F2 E FFDE | FE A,2 z EDE | %40
w: Glaub' _ _ hat dir ge- hol-|fen, dein Glaub' hat dir ge- hol-|fen. Und als- bald und als-|bald und als- bald ward|er se- * hend und fol- ge-|te ihm nach und fol- ge-|
 EF E2 z ECD | EECC EDCA, | D2 z D B,CDD | EF FE/D/ CDEE |[M:6/8] E2 E G/G/GE | G/G/GE G>GA | %46
w: te ihm nach und fol- ge-|te ihm nach und fol- ge- te ihm|nach und fol- ge- te ihm|nach und fol- * * * ge- te ihm|nach und prei- se- te und|prei- se- te und prei- se- te|
[M:4/4] ^G4 z GGG | A3 G G2 F2 | EE E/D/C/B,/ CA,EE- | E/D/C/B,/ C/B,/A,/G,/ A,A,EE- | EF E2 E4 | %51
w: Gott. Und al- les|Volk, das sol- ches|sa- he, lo- * * * * be- te lo-|* * * * * * * * * be- te lo-|* be- te Gott.|
 z ^GGG A3 =G | G2 F2 EE E/D/C/B,/ | CA,E E>DC/B,/ C/B,/A,/G,/ | A,A,E E2 F E2 | C>D E2 z2 z A- | %56
w: Und al- les Volk, das|sol- ches sa- he, lo- * * *|* be- te lo- * * * * * * *|* be- te lo- be- te|Gott, _ _ lo-|
 A/G/F/E/ F/E/D/C/ DD D2 | ^C8 |] %58
w: * * * * * * * * * be- te|Gott.|
V:3
 z4 B4- | B2 c2 B2 e2- | edcB A2 B2 | c3 B A4 | !fermata!B4 A4 | A4 A4 | z2 A2 A4 | A4 z4 | %8
w: Je-|* sus sprach zu|_ _ _ _ _ dem|Blin- * *|den: Was|willst du,|was willst|du,|
 z2 A2 G2 G2 | A3 B cB/A/ BB | ^c4 z4 | z2 A2 G2 G2 | A3 B cB/A/ BB | e2 e3 d cB | AB c2 d2 A2- | %15
w: das ich dir|tun _ _ _ _ _ _|soll?|das ich dir|tun _ _ _ _ _ _|soll? Er _ _ _|_ _ _ sprach: Er|
 A2 A2 ^G4 | z4 z edc | BABc cA^GA | B2 z2 z4 | z ccA ^GABc | ddeA GFED | E z z A GFEc | %22
w: _ sprach: Herr,|dass ich se-|hen mö- ge! dass ich se- hen mö-|ge!|dass ich se- hen dass ich se-|hen mö- ge! dass ich se- hen mö-|ge! dass ich se- hen dass|
 BA^GA B2 c2- | c2 B A2 ^G A2 | ^G8 || A8 | A6 A2 | A2 A2 B2 B2 | c2 BG A>A GE | F2 EA A>B cB | %30
w: ich se- hen mö- ge! dass|_ ich se- hen mö-|ge!|Und|Je- sus|sprach zu ihm: sei|se- hend dein Glaub' hat dir ge-|hol- fen, dein Glaub' _ _ hat|
 AA B2 Acde | A/B/c/A/ Bc A2 AB | c2 B^G A>A GE | F2 EA A>B cB | A/B/c/A/ Bc B/A/ A2 ^G | %35
w: dir ge- hol- fen, dein Glaub' hat|dir _ _ _ _ ge- hol- fen, sei|se- hend dein Glaub' hat dir ge-|hol- fen, dein Glaub' _ _ hat|dir _ _ _ _ ge- hol- * * *|
 AA A>A cc B2 | A e2 e d d2 d | cc cd>c c2 B | c4 z4 | z4 z cAB | cdcc ABcB | c2 e2 ^cded | %42
w: fen, dein Glaub' hat dir ge- hol-|fen. Und als- bald und als-|bald ward er se- * * *|hend|und fol- ge-|te ihm nach und fol- ge- te ihm|nach und fol- ge- te ihm|
 B2 z d dccB | c2 z c ABcB |[M:6/8] ^c2 c d/d/ec | d/d/e^c d>ee |[M:4/4] e4 z eee | e3 e d2 d2 | %48
w: nach und fol- ge- te ihm|nach und fol- ge- te ihm|nach und prei- se- te und|prei- se- te und prei- se- te|Gott. Und al- les|Volk, das sol- ches|
 c2 c2 z e>dc/B/ | c/B/A/G/ Ac c e>dc/B/ | ^cd B2 c4 | z eee e3 e | d2 d2 c2 c2 | %53
w: sa- he, lo- * * *|* * * * * be- te lo- * * *|* be- te Gott.|Und al- les Volk, das|sol- ches sa- he,|
 z e>dc/B/ c/B/A/G/ Ac | c e>dc/B/ ^cd B2 | e e>dc/B/ c/B/A/G/ AA | A8 | A8 |] %58
w: lo- * * * * * * * * be-|te lo- * * * * be- te|Gott, lo- * * * * * * * * be-|te|Gott.|
V:4
 z4 E,4- | E,2 A,,2 E,4 | A,6 ^G,2 | A,3 !courtesy!=G, F,4 | !fermata!E,4 A,,4 | D,4 A,,4 | %6
w: Je-|* sus sprach|zu dem|Blin- * *|den: Was|willst du,|
 z2 A,,2 D,4 | A,,4 z2 A,,2 | D,E,F,D, E,2 C,2 | F,4 E,4 | A,,4 z2 A,,2 | D,E,F,D, E,2 C,2 | %12
w: was willst|du, das|ich _ _ _ _ dir|tun _|soll? das|ich _ _ _ _ dir|
 F,4 E,4 | A,,4 z2 A,2- | A,G,F,E, D,4- | D,2 A,,2 E,4 | z4 E,2 G,A, | G,F,E,A,, C,D,E,F, | %18
w: tun _|soll? Er|_ _ _ _ _|* sprach: Herr,|dass ich se-|hen mö- ge! dass ich se- hen mö-|
 E,2 z A, G,F,E,D, | E,A,,C,D, E,F,E,A, | G,F,E,D, E, z z A, | G,F,E,D, E, z z C, | %22
w: ge! dass ich se- hen mö-|ge! dass ich se- hen mö- ge! dass|ich se- hen mö- ge! dass|ich se- hen mö- ge! dass|
 G,,A,,E,F, E,2 A,,2 | C,2 D,2 E,2 F,2 | E,8 || A,,8 | D,6 ^C,2 | D,2 F,2 E,4 | z8 | %29
w: ich se- hen mö- ge! dass|ich se- hen mö-|ge!|Und|Je- sus|sprach zu ihm:||
 z2 z A,, D,2 C,E, | F,2 E,E, A,2 G,E, | F,>F, E,C, D,2 A,,E, | A,2 E,E, A,,2 E,2 | %33
w: sei se- hend sei|se- hend sei se- hend dein|Glaub' hat dir ge- hol- fen, sei|se- hend sei se- hend|
 z2 z A,, D,2 C,E, | F,>F, E,C, D,2 E,2 | z A,, D,>D, C,A,, E,2 | A,, A,2 E, G, G,2 D, | %37
w: sei se- hend dein|Glaub' hat dir ge- hol- fen,|dein Glaub' hat dir ge- hol-|fen. Und als- bald und als-|
 F, F,2 D, E,>F, G,2 | C,4 z4 | z2 z F, D,E,F,E, | A,,2 A,2 ^F,G,A,G, | C,2 C,2 A,,B,,C,D, | %42
w: bald ward er se- * *|hend|und fol- ge- te ihm|nach und fol- ge- te ihm|nach und fol- ge- te ihm|
 G,,G,E,^F, G,2 G,2 | C,F,D,E, F,2 E,2 |[M:6/8] A,,2 A, G,/G,/E,A, | G,/G,/E,A, G,>E,A, | %46
w: nach und fol- ge- te ihm|nach und fol- ge- te ihm|nach und prei- se- te und|prei- se- te und prei- se- te|
[M:4/4] E,4 z E,E,E, | A,3 E, G,2 D,2 | A,8 | A,,4 z2 A,2- | A,D, E,2 A,,4 | z E,E,E, A,3 E, | %52
w: Gott. Und al- les|Volk, das sol- ches|sa-|he, lo-|* be- te Gott.|Und al- les Volk, das|
 G,2 D,2 A,4- | A,4 A,,4 | z2 A,3 D, E,2 | A,,3 A,>G,F,/E,/ F,/D,/E,/C,/ | D,2 D,2 D,4 | A,,8 |] %58
w: sol- ches sa-|* he,|lo- be- te|Gott, lo- * * * * * * *|* be- te|Gott.|

